sprite_icons/terminal.svg

<svg xmlns="http://www.w3.org/2000/svg" width="16" height="16" viewBox="0 0 16 16">
  <path d="M7 8c0 .25592232-.09763107.51184464-.29289322.70710678L5.29289322 10.1213203c-.3905243.3905243-1.02368927.3905243-1.41421356 0-.3905243-.39052425-.3905243-1.02368923 0-1.41421352L4.58578644 8l-.70710678-.70710678c-.3905243-.3905243-.3905243-1.02368927 0-1.41421356.3905243-.3905243 1.02368927-.3905243 1.41421356 0l1.41421356 1.41421356C6.90236893 7.48815536 7 7.74407768 7 8zM4 0h8c2.209139 0 4 1.790861 4 4v8c0 2.209139-1.790861 4-4 4H4c-2.209139 0-4-1.790861-4-4V4c0-2.209139 1.790861-4 4-4zm0 2c-1.1045695 0-2 .8954305-2 2v8c0 1.1045695.8954305 2 2 2h8c1.1045695 0 2-.8954305 2-2V4c0-1.1045695-.8954305-2-2-2H4zm5 7h2c.5522847 0 1 .44771525 1 1 0 .5522847-.4477153 1-1 1H9c-.55228475 0-1-.4477153-1-1 0-.55228475.44771525-1 1-1z"/>
</svg>

<svg xmlns="http://www.w3.org/2000/svg" width="16" height="16" viewBox="0 0 16 16">
  <path fill="#000000" d="M7,8 C7,8.25592232 6.90236893,8.51184464 6.70710678,8.70710678 L5.29289322,10.1213203 C4.90236893,10.5118446 4.26920395,10.5118446 3.87867966,10.1213203 L3.87867966,10.1213203 C3.48815536,9.73079605 3.48815536,9.09763107 3.87867966,8.70710678 L4.58578644,8 L3.87867966,7.29289322 C3.48815536,6.90236893 3.48815536,6.26920395 3.87867966,5.87867966 C4.26920395,5.48815536 4.90236893,5.48815536 5.29289322,5.87867966 L6.70710678,7.29289322 C6.90236893,7.48815536 7,7.74407768 7,8 Z M4,-1.97215226e-31 L12,-1.97215226e-31 C14.209139,-1.03620816e-15 16,1.790861 16,4 L16,12 C16,14.209139 14.209139,16 12,16 L4,16 C1.790861,16 -1.48029737e-16,14.209139 -4.4408921e-16,12 L-1.97215226e-31,4 C-8.8817842e-16,1.790861 1.790861,-1.97215226e-31 4,-1.97215226e-31 Z M4,2 C2.8954305,2 2,2.8954305 2,4 L2,12 C2,13.1045695 2.8954305,14 4,14 L12,14 C13.1045695,14 14,13.1045695 14,12 L14,4 C14,2.8954305 13.1045695,2 12,2 L4,2 Z M9,9 L11,9 C11.5522847,9 12,9.44771525 12,10 C12,10.5522847 11.5522847,11 11,11 L9,11 C8.44771525,11 8,10.5522847 8,10 C8,9.44771525 8.44771525,9 9,9 Z"/>
</svg>
